X: 1
T: NAPOLEON -- HORNPIPE
B: Cole's 1000 Fiddle Tunes
R: hornpipe
M: 2/4
L: 1/16
Z: Contributed 20000422033656 by John Chambers jc:trillian.mit.edu
K: Bb
uF2 \
| v.B2(bf) dBcd | edcB AGFE | DFBF edcB | ABcd v.c2vdc |
| v.B2(bf) dBcd | edcB AGFE | DFBd cecA | B2[d2B2]B2 :|
|: vBc \
| .d(BAB) .e(cAc) | fdgf edcB | ABcd ecdB | .A2{g}.f2 FGFE |
| DFBd fdBF | GEGB gfed | cBAg fecA | B2[d2B2]B2 :|
